!!!COM: Palestrina, Giovanni Perluigi da
!!!OPR: Missa In semidupl. maj. (I)
!!!OMD: Credo
!!!OTL: Qui cum Patre
**kern	**kern	**kern	**kern	**kern
*Ibass	*Itenor	*Itenor	*Icalto	*Icant
!Bassus	!Tenor 2	!Tenor 1	!Altus	!Cantus
*clefF4	*clefGv2	*clefGv2	*clefG2	*clefG2
*k[b-]	*k[b-]	*k[b-]	*k[b-]	*k[b-]
*F:ion	*F:ion	*F:ion	*F:ion	*F:ion
*M4/2	*M4/2	*M4/2	*M4/2	*M4/2
=128	=128	=128	=128	=128
1r	1F	0r	0r	0r
1C	1G	.	.	.
=129	=129	=129	=129	=129
1D	1B-	0r	0r	0r
1F	2.A	.	.	.
.	4B-	.	.	.
=130	=130	=130	=130	=130
2F	2c	0r	0r	1r
2F	1d	.	.	.
1E	.	.	.	2r
.	[2c	.	.	2c
=131	=131	=131	=131	=131
1D	2c]	1F	1r	2d
.	2B	.	.	1f
2C	1c	1G	2r	.
2C	.	.	2c	2e
=132	=132	=132	=132	=132
2BB-	1F	1B-	1d	2f
2BB-	.	.	.	4f
.	.	.	.	4g
1FF	2.F	2.A	1f	4a
.	.	.	.	4b-
.	.	.	.	[2cc
.	4G	4B-	.	.
=133	=133	=133	=133	=133
0r	2A	2c	2f	2cc]
.	2B-	1d	2f	4b-
.	.	.	.	4a
.	1c	.	1e	2g
.	.	[2c	.	2g
=134	=134	=134	=134	=134
1r	1G	2c]	1d	1g
.	.	2B	.	.
2r	2r	[1c	1c	1r
[2F	[2A	.	.	.
=135	=135	=135	=135	=135
2F]	2A]	0c]	0r	0r
2E	2G	.	.	.
2F	[1A	.	.	.
2C	.	.	.	.
=136	=136	=136	=136	=136
1D	2A]	0r	2r	1.a
.	2B-	.	1f	.
1C	1c	.	.	.
.	.	.	2e	2g
=137	=137	=137	=137	=137
0r	1F	1A	2f	1a
.	.	.	2c	.
.	1r	1G	1d	1b
=138	=138	=138	=138	=138
1F	0r	1.A	2c	1cc
.	.	.	1f	.
1D	.	.	.	2.f
.	.	2B-	2d	.
.	.	.	.	4g
=139	=139	=139	=139	=139
1C	0r	0c	2e	2a
.	.	.	1f	4g
.	.	.	.	4f
1C	.	.	.	1g
.	.	.	2e	.
=140	=140	=140	=140	=140
0r	2r	1F	2.f	1a
.	2c	.	.	.
.	.	.	4e	.
.	2B-	2r	2d	1r
.	2A	2c	2c	.
=141	=141	=141	=141	=141
2r	2G	2B-	0r	0r
2F	2F	2A	.	.
2E-	2G	2G	.	.
2D	[2A	2F	.	.
=142	=142	=142	=142	=142
2C	4A]	1G	0r	0r
.	4G	.	.	.
2BB-	1G	.	.	.
1C	.	1A	.	.
.	[2F	.	.	.
=143	=143	=143	=143	=143
1C	4F]	1G	2r	0r
.	8E	.	.	.
.	8D	.	.	.
.	2E	.	2g	.
1r	2F	1c	2f	.
.	2C	.	2e	.
=144	=144	=144	=144	=144
0r	0r	2B-	2d	2r
.	.	2A	2c	2cc
.	.	2G	1d	2b-
.	.	2F	.	2a
=145	=145	=145	=145	=145
0r	0r	2G	2e	2g
.	.	2A	1f	2f
.	.	2B-	.	1g
.	.	2c	2e	.
=146	=146	=146	=146	=146
2r	1c	1F	1f	0f
1F	.	.	.	.
.	2A	2r	1r	.
2D	2B-	2B-	.	.
=147	=147	=147	=147	=147
2E	2c	2G	0r	0r
2F	1d	2A	.	.
1G	.	1B	.	.
.	2G	.	.	.
=148	=148	=148	=148	=148
2C	2.A	2c	1r	0r
2D	.	2F	.	.
.	4B-	.	.	.
2E	4c	2G	2r	.
.	4B-	.	.	.
[2F	4A	[2A	2c	.
.	4G	.	.	.
=149	=149	=149	=149	=149
4F]	1F	4A]	2A	0r
4E	.	4G	.	.
2D	.	1F	2B-	.
1C	1G	.	1c	.
.	.	2E	.	.
=150	=150	=150	=150	=150
1BB-	1B-	2F	2.d	1f
.	.	1B-	.	.
.	.	.	4e	.
1r	1r	.	2f	2d
.	.	2G	2g	2e
=151	=151	=151	=151	=151
0r	0r	2A	2c	2f
.	.	2B-	2d	1g
.	.	4c	1e	.
.	.	4B-	.	.
.	.	4A	.	2c
.	.	4G	.	.
=152	=152	=152	=152	=152
1.BB-	0r	4F	1f	2.d
.	.	4E	.	.
.	.	2D	.	.
.	.	.	.	4e
.	.	2d	1B-	2f
2GG	.	2d	.	[2g
=153	=153	=153	=153	=153
2AA	1r	2c	2c	4g]
.	.	.	.	4f
2BB-	.	4B-	2d	1f
.	.	4A	.	.
1C	2r	1G	2.c	.
.	[2c	.	.	2e
.	.	.	4B-	.
=154	=154	=154	=154	=154
1FF	2c]	[0F	2A	0f
.	2A	.	2c	.
2BB-	2B-	.	2d	.
2AA	2c	.	2c	.
=155	=155	=155	=155	=155
2.BB-	2d	1F]	2B-	2r
.	1d	.	1B-	1f
4C	.	.	.	.
4D	.	2r	.	.
4E	.	.	.	.
2F	2c	[2F	2A	2f
=156	=156	=156	=156	=156
0BB-	0B-	2F]	1B-	2.d
.	.	2F	.	.
.	.	.	.	4e
.	.	2.D	1d	2f
.	.	.	.	2g
.	.	4E	.	.
=157	=157	=157	=157	=157
[0FF	[0A	[0F	[0c	[0a
=158	=158	=158	=158	=158
1FF_	1A_	1F_	1c_	1a_
1FF_	1A_	1F_	1c_	1a_
=159	=159	=159	=159	=159
0FF]	0A]	0F]	0c]	0a]
*-	*-	*-	*-	*-
!!!CDT: 1525/^1526/-1594/2/2
!!!OCY: Italia
!!!AGN: Mass (Paraphrase)
!!!AST: renaissance, vocal
!!!ASW: Gregorian Mass
!!!PWK: Masses, Book Mantuan II
!!!RNB: Cadence finals: C
!!!YOR: Le Opere Complete, v. 19, p. 129
!!!YOO: Rome, Italy: Fratelli Scalera
!!!END: 1992//
!!!EED: John Miller
!!!YEC: Copyright 2000, John Miller
!!!YEN: United States of America
!!!YEM: Rights to all derivative electronic formats reserved.
!!!YEM: Refer to licensing agreement for further details.
!!!YEM: This file must be accompanied by the licensing agreement.
!!!YEM: A copy of the licensing agreement may be found at http://www.music-cog.ohio-state.edu/HumdrumDatabases/Palestrina/license.txt
!!!EMD: converted to Humdrum by Bret Aarden
